X: 501
T: Crockett's Honeymoon
B: jims roots
M:C|
L:1/8
R: reel
Q: 1/4=100
K:G
V:1 
B|: "G" BABA GDEF | GABc dedc | ABBA GABc | dcBc "D"AFGA |
"G"BGAF GDED | GABc dega | beae gedc |[1 BcdB "D"A2 :| [2 BcdB "D"AcBA ||
|:"Em"[e3e][ee][e2e]([e2e] | [ee])def gfed | "G"B2d2- dBAG | ABge dBAG |
"Em"[e3e][ee][e2e]df | edef geae | beae gedA |[1 "G"BcdB "D"AcBA :|[2 "G"BcdB "D"[A4A]|]
% abcbook-tune_id 6298c2451b97890827af2138


% abcbook-boost 0
% abcbook-tablature 
% abcbook-transpose 
% abcbook-lastupdated 1654178373872
% abcbook-soundfonts 
% abcbook-repeats 1


